src/22/actions/view-list-tree.svg

<svg xmlns="http://www.w3.org/2000/svg" viewBox="0 0 22 22"><path d="M3 3v7h6v6h3v3h7v-7h-7v3h-2V7h2v3h7V3h-7v3h-2V3H3zm1 1h5v5H4V4zm9 0h5v5h-5V4z" fill="currentColor" color="#5d656b"/></svg>

<svg xmlns="http://www.w3.org/2000/svg" viewBox="0 0 22 22">
  <defs id="defs3051">
    <style type="text/css" id="current-color-scheme">
      .ColorScheme-Text {
        color:#5d656b;
      }
      </style>
  </defs>
 <path 
    style="fill:currentColor;fill-opacity:1;stroke:none" 
    d="M 3 3 L 3 10 L 9 10 L 9 16 L 10 16 L 12 16 L 12 19 L 19 19 L 19 12 L 12 12 L 12 15 L 10 15 L 10 10 L 10 7 L 12 7 L 12 10 L 19 10 L 19 3 L 12 3 L 12 6 L 10 6 L 10 3 L 3 3 z M 4 4 L 9 4 L 9 9 L 4 9 L 4 4 z M 13 4 L 18 4 L 18 9 L 13 9 L 13 4 z "
	class="ColorScheme-Text"
    />  
</svg>
